svgs/regular/chf-sign.svg

<svg xmlns="http://www.w3.org/2000/svg" viewBox="0 0 640 512"><!--! Font Awesome Pro 6.6.0 by @fontawesome - https://fontawesome.com License - https://fontawesome.com/license (Commercial License) Copyright 2024 Fonticons, Inc. --><path d="M0 115.3C0 69 38.2 32 83.9 32c30.9 0 59.6 17.4 73.6 45.3c5.9 11.9 1.1 26.3-10.7 32.2s-26.3 1.1-32.2-10.7C108.9 87.4 96.9 80 83.9 80C64.1 80 48 96.1 48 115.3l0 281.3C48 415.9 64.1 432 83.9 432c13 0 25-7.4 30.6-18.7c5.9-11.9 20.3-16.7 32.2-10.7s16.7 20.3 10.7 32.2C143.5 462.6 114.7 480 83.9 480C38.2 480 0 443 0 396.7L0 115.3zM216 32c13.3 0 24 10.7 24 24l0 168 128 0 0-168c0-13.3 10.7-24 24-24s24 10.7 24 24l0 400c0 13.3-10.7 24-24 24s-24-10.7-24-24l0-184-128 0 0 184c0 13.3-10.7 24-24 24s-24-10.7-24-24l0-400c0-13.3 10.7-24 24-24zM448 56c0-13.3 10.7-24 24-24l144 0c13.3 0 24 10.7 24 24s-10.7 24-24 24L496 80l0 144 88 0c13.3 0 24 10.7 24 24s-10.7 24-24 24l-88 0 0 184c0 13.3-10.7 24-24 24s-24-10.7-24-24l0-400z"/></svg>

<svg xmlns="http://www.w3.org/2000/svg" viewBox="0 0 640 512"><!--! Font Awesome Pro 6.4.2 by @fontawesome - https://fontawesome.com License - https://fontawesome.com/license (Commercial License) Copyright 2023 Fonticons, Inc. --><path d="M0 115.3C0 69 38.2 32 83.9 32c30.9 0 59.6 17.4 73.6 45.3c5.9 11.9 1.1 26.3-10.7 32.2s-26.3 1.1-32.2-10.7C108.9 87.4 96.9 80 83.9 80C64.1 80 48 96.1 48 115.3V396.7C48 415.9 64.1 432 83.9 432c13 0 25-7.4 30.6-18.7c5.9-11.9 20.3-16.7 32.2-10.7s16.7 20.3 10.7 32.2C143.5 462.6 114.7 480 83.9 480C38.2 480 0 443 0 396.7V115.3zM216 32c13.3 0 24 10.7 24 24V224H368V56c0-13.3 10.7-24 24-24s24 10.7 24 24V456c0 13.3-10.7 24-24 24s-24-10.7-24-24V272H240V456c0 13.3-10.7 24-24 24s-24-10.7-24-24V56c0-13.3 10.7-24 24-24zM448 56c0-13.3 10.7-24 24-24H616c13.3 0 24 10.7 24 24s-10.7 24-24 24H496V224h88c13.3 0 24 10.7 24 24s-10.7 24-24 24H496V456c0 13.3-10.7 24-24 24s-24-10.7-24-24V56z"/></svg>
